assets/icons/qvision/local_printshop.svg

<svg xmlns="http://www.w3.org/2000/svg" height="24" viewBox="0 0 24 24" width="24"><path d="M0 0h24v24H0z" fill="none"/><path d="M19 8H5c-1.66 0-3 1.34-3 3v6h4v4h12v-4h4v-6c0-1.66-1.34-3-3-3zm-3 11H8v-5h8v5zm3-7c-.55 0-1-.45-1-1s.45-1 1-1 1 .45 1 1-.45 1-1 1zm-1-9H6v4h12V3z"/></svg>

<svg width="24" height="24" viewBox="0 0 24 24" fill="none" xmlns="http://www.w3.org/2000/svg">
<g clip-path="url(#clip0_147_5451)">
<path d="M19 8H5C3.34 8 2 9.34 2 11V17H6V21H18V17H22V11C22 9.34 20.66 8 19 8ZM16 19H8V14H16V19ZM19 12C18.45 12 18 11.55 18 11C18 10.45 18.45 10 19 10C19.55 10 20 10.45 20 11C20 11.55 19.55 12 19 12ZM18 3H6V7H18V3Z" fill="#323232"/>
</g>
<defs>
<clipPath id="clip0_147_5451">
<rect width="24" height="24" fill="white"/>
</clipPath>
</defs>
</svg>
